X:304
T:Gillan's Apples
R:jig
H:A different two-part version in G: #178
D:Matt Molloy & Sean Keane: Contentment Is Wealth
Z:id:hn-jig-304
M:6/8
K:D
dAF FEF|FEF F2B|AFE EFE|EFE EFA|
dAF FEF|DFA d2e|fed cdB|1 cAA ABc:|2 cAA A2B||
|:cAe cAe|cAc edc|dBf dBf|dBd fed|
cAe cAe|cAc efg|fed cdB|1 cAA A2B:|2 cAA AB/c/d||
|:cBA BAF|dAF D2d|cBA BAF|AFE E2d|
cBA BAF|DFA d2e|fed cdB|1 cAA AB/c/d:|2 cAA A2B||
|:cAA eAA|fAA edc|dBB fBB|~f3 fed|
cAA eAA|fAA efg|fed cdB|1 cAA A2B:|2 cAA ABc||

